www/assets/icons/display_settings.svg

<svg width="24" height="24" viewBox="0 0 24 24" xmlns="http://www.w3.org/2000/svg" fill='currentColor'><path d="M20 3H4C2.89 3 2 3.89 2 5V17C2 18.1 2.89 19 4 19H8V21H16V19H20C21.1 19 22 18.1 22 17V5C22 3.89 21.1 3 20 3ZM20 17H4V5H20V17Z"/><path d="M14 8.25H6V9.75H14V8.25Z"/><path d="M16.5 9.75H18V8.25H16.5V7H15V11H16.5V9.75Z"/><path d="M18 12.25H10V13.75H18V12.25Z"/><path d="M7.5 15H9V11H7.5V12.25H6V13.75H7.5V15Z"/></svg>

<svg xmlns="http://www.w3.org/2000/svg" width="24" height="24" viewBox="0 0 24 24" fill='currentColor'><path d="M20 3H4c-1.11 0-2 .89-2 2v12a2 2 0 0 0 2 2h4v2h8v-2h4c1.1 0 2-.9 2-2V5a2 2 0 0 0-2-2m0 14H4V5h16z"/><path d="M14 8.25H6v1.5h8zm2.5 1.5H18v-1.5h-1.5V7H15v4h1.5zm1.5 2.5h-8v1.5h8zM7.5 15H9v-4H7.5v1.25H6v1.5h1.5z"/></svg>
